X:3593
L:1/8
Q:3/8=100
M:6/8
K:C
 G | (A/B/c)A (B/c/d)B | c2 g gec | f2 d dBG | ABc BAG | (A/B/c)A (B/c/d)B | c2 g gec | f2 d de^f | 
 g3- g2 |:

